X:28
T:Larry Park's Return
R:slow strathspey
C:Paul S. Cranford
O:Cape Breton Island
S:http://www.cranfordpub.com
D:currently unrecorded
B:currently unpublished in book form
Z:psc
H:                                                        copyrights Cranford Publications, SOCAN
L:1/8
Q:244
M:C|
K:C
z|G/A/B c>e d>cd<e|g>ec<e d>cA<c|G/A/B c>e d>cd<e|g>ed<e a2 a<c'|
g>ae<g d<ec>e|d>ce<c A>GA<c|d/c/B/A/ c>G A<cG>c|(A/B/c) G<e d2 c||
||z|(e/f/g) c>G (A/B/c) G>e|d/c/B/A/ c>e d>cA>c|(e/f/g) a>g e<cd>g|a/g/f/e/ c>e  d2 c z|
(e/f/g) c>G (A/B/c) G>e|d/c/B/A/ c>e d>cA>g|a/g/f/e/ c'>e  d<eA>G|(A/B/c) G<e d2 c|]
